static/assets/img/icons/custom/collaboration.svg

<svg height="125pt" viewBox="0 0 125 125" width="125pt" xmlns="http://www.w3.org/2000/svg"><path d="m7.932 62.349c.097.019.191.026.285.026.787 0 1.482-.563 1.621-1.364 1.937-11.135 8.728-18.328 17.3-18.328 5.944 0 10.945 3.258 14.2 9.14-3.09 4.701-5.363 10.538-6.48 17.331-.148.898.46 1.744 1.358 1.892.09.016.18.023.269.023.793 0 1.491-.573 1.623-1.38 1.107-6.734 3.315-12.41 6.351-16.81.027-.031.045-.068.069-.101 4.454-6.397 10.687-10.037 17.975-10.037 12.119 0 21.693 10.578 24.394 26.947.148.898.986 1.525 1.893 1.358.898-.148 1.504-.994 1.356-1.892-1.12-6.791-3.393-12.626-6.482-17.326 3.254-5.885 8.257-9.145 14.202-9.145 8.572 0 15.364 7.194 17.3 18.328.14.801.835 1.364 1.621 1.364.093 0 .188-.006.285-.026.896-.154 1.496-1.007 1.34-1.905-1.713-9.845-6.892-16.988-13.858-19.767 3.365-2.195 5.603-5.978 5.603-10.288 0-6.779-5.514-12.293-12.291-12.293-6.779 0-12.293 5.514-12.293 12.293 0 4.316 2.246 8.102 5.62 10.297-3.84 1.51-7.128 4.382-9.624 8.316-3.227-3.922-7.113-6.816-11.527-8.317 4.918-2.691 8.3-7.853 8.3-13.844 0-8.735-7.105-15.841-15.84-15.841s-15.841 7.107-15.841 15.841c0 5.99 3.381 11.152 8.3 13.844-4.416 1.5-8.302 4.394-11.529 8.314-2.495-3.932-5.782-6.804-9.621-8.312 3.374-2.194 5.62-5.981 5.62-10.297 0-6.779-5.514-12.293-12.293-12.293-6.777 0-12.291 5.514-12.291 12.293 0 4.309 2.238 8.093 5.603 10.288-6.966 2.778-12.144 9.922-13.858 19.767-.156.897.444 1.75 1.34 1.904zm80.937-31.959c0-4.961 4.036-8.998 8.998-8.998 4.961 0 8.997 4.038 8.997 8.998s-4.036 8.998-8.997 8.998c-4.962 0-8.998-4.037-8.998-8.998zm-38.912-3.549c0-6.917 5.628-12.547 12.547-12.547 6.917 0 12.545 5.63 12.545 12.547s-5.628 12.547-12.545 12.547c-6.918 0-12.547-5.63-12.547-12.547zm-31.815 3.549c0-4.961 4.036-8.998 8.997-8.998 4.962 0 8.998 4.038 8.998 8.998s-4.036 8.998-8.998 8.998c-4.961 0-8.997-4.037-8.997-8.998zm100.54 52.211c-13.063 17.833-34.044 28.478-56.125 28.478-22.079 0-43.06-10.646-56.125-28.478-.537-.737-.378-1.766.355-2.304.73-.54 1.761-.38 2.302.354 12.446 16.99 32.434 27.134 53.468 27.134 21.036 0 41.024-10.144 53.468-27.134.54-.727 1.57-.891 2.302-.354.733.537.892 1.567.355 2.304z" stroke="#fd2d55"/></svg>

<?xml version="1.0" encoding="UTF-8" standalone="no"?><!-- Generator: Gravit.io --><svg xmlns="http://www.w3.org/2000/svg" xmlns:xlink="http://www.w3.org/1999/xlink" style="isolation:isolate" viewBox="0 0 125 125" width="125pt" height="125pt">
  <g clip-path="url(#_clipPath_KXNc7x7RYI4iCKKbraZKBfI6MfM1zavT)"><path d=" M 7.932 62.349 C 8.029 62.368 8.123 62.375 8.217 62.375 C 9.004 62.375 9.699 61.812 9.838 61.011 C 11.775 49.876 18.566 42.683 27.138 42.683 C 33.082 42.683 38.083 45.941 41.338 51.823 C 38.248 56.524 35.975 62.361 34.858 69.154 C 34.71 70.052 35.318 70.898 36.216 71.046 C 36.306 71.062 36.396 71.069 36.485 71.069 C 37.278 71.069 37.976 70.496 38.108 69.689 C 39.215 62.955 41.423 57.279 44.459 52.879 C 44.486 52.848 44.504 52.811 44.528 52.778 C 48.982 46.381 55.215 42.741 62.503 42.741 C 74.622 42.741 84.196 53.319 86.897 69.688 C 87.045 70.586 87.883 71.213 88.79 71.046 C 89.688 70.898 90.294 70.052 90.146 69.154 C 89.026 62.363 86.753 56.528 83.664 51.828 C 86.918 45.943 91.921 42.683 97.866 42.683 C 106.438 42.683 113.23 49.877 115.166 61.011 C 115.306 61.812 116.001 62.375 116.787 62.375 C 116.88 62.375 116.975 62.369 117.072 62.349 C 117.968 62.195 118.568 61.342 118.412 60.444 C 116.699 50.599 111.52 43.456 104.554 40.677 C 107.919 38.482 110.157 34.699 110.157 30.389 C 110.157 23.61 104.643 18.096 97.866 18.096 C 91.087 18.096 85.573 23.61 85.573 30.389 C 85.573 34.705 87.819 38.491 91.193 40.686 C 87.353 42.196 84.065 45.068 81.569 49.002 C 78.342 45.08 74.456 42.186 70.042 40.685 C 74.96 37.994 78.342 32.832 78.342 26.841 C 78.342 18.106 71.237 11 62.502 11 C 53.767 11 46.661 18.107 46.661 26.841 C 46.661 32.831 50.042 37.993 54.961 40.685 C 50.545 42.185 46.659 45.079 43.432 48.999 C 40.937 45.067 37.65 42.195 33.811 40.687 C 37.185 38.493 39.431 34.706 39.431 30.39 C 39.431 23.611 33.917 18.097 27.138 18.097 C 20.361 18.097 14.847 23.611 14.847 30.39 C 14.847 34.699 17.085 38.483 20.45 40.678 C 13.484 43.456 8.306 50.6 6.592 60.445 C 6.436 61.342 7.036 62.195 7.932 62.349 Z  M 88.869 30.39 C 88.869 25.429 92.905 21.392 97.867 21.392 C 102.828 21.392 106.864 25.43 106.864 30.39 C 106.864 35.35 102.828 39.388 97.867 39.388 C 92.905 39.388 88.869 35.351 88.869 30.39 Z  M 49.957 26.841 C 49.957 19.924 55.585 14.294 62.504 14.294 C 69.421 14.294 75.049 19.924 75.049 26.841 C 75.049 33.758 69.421 39.388 62.504 39.388 C 55.586 39.388 49.957 33.758 49.957 26.841 Z  M 18.142 30.39 C 18.142 25.429 22.178 21.392 27.139 21.392 C 32.101 21.392 36.137 25.43 36.137 30.39 C 36.137 35.35 32.101 39.388 27.139 39.388 C 22.178 39.388 18.142 35.351 18.142 30.39 Z  M 118.682 82.601 C 105.619 100.434 84.638 111.079 62.557 111.079 C 40.478 111.079 19.497 100.433 6.432 82.601 C 5.895 81.864 6.054 80.835 6.787 80.297 C 7.517 79.757 8.548 79.917 9.089 80.651 C 21.535 97.641 41.523 107.785 62.557 107.785 C 83.593 107.785 103.581 97.641 116.025 80.651 C 116.565 79.924 117.595 79.76 118.327 80.297 C 119.06 80.834 119.219 81.864 118.682 82.601 Z " vector-effect="non-scaling-stroke" stroke-width="1" stroke="#FD2D55" stroke-linejoin="miter" stroke-linecap="butt" stroke-miterlimit="4"/></g>
  </svg>
